icons/wikidata.svg

<svg width="31" height="21" viewBox="0 0 31 21" fill="none" xmlns="http://www.w3.org/2000/svg">
<path d="M0 20.0207H1.14815V0H0V20.0207ZM2.29631 20.0207H5.74077V0H2.29631V20.0207ZM6.88892 0V20.0207H10.3334V0H6.88892Z" fill="#990000"/>
<path d="M27.5556 20.0207H28.7037V0H27.5556V20.0207ZM29.8519 0V20.0207H31V0H29.8519ZM11.4819 20.0207H12.6301V0H11.4819V20.0207ZM13.7782 0V20.0207H14.9264V0H13.7782Z" fill="#339966"/>
<path d="M16.0741 20.0207H19.5186V0H16.0741V20.0207ZM20.6667 20.0207H21.8149V0H20.6667V20.0207ZM22.963 0V20.0207H26.4075V0H22.963Z" fill="#006699"/>
</svg>

<svg width="31" height="21" fill="none" xmlns="http://www.w3.org/2000/svg"><path d="M0 20.02h1.148V0H0v20.02zm2.296 0h3.445V0H2.296v20.02zM6.89 0v20.02h3.444V0H6.89z" fill="#900"/><path d="M27.556 20.02h1.148V0h-1.148v20.02zM29.852 0v20.02H31V0h-1.148zm-18.37 20.02h1.148V0h-1.148v20.02zM13.778 0v20.02h1.148V0h-1.148z" fill="#396"/><path d="M16.074 20.02h3.445V0h-3.445v20.02zm4.593 0h1.148V0h-1.148v20.02zM22.963 0v20.02h3.444V0h-3.444z" fill="#069"/></svg>
